src/assets/icons/linkedinIcon.svg

<svg width="21" height="21" viewBox="0 0 21 21" fill="none" xmlns="http://www.w3.org/2000/svg">
<path d="M11.3384 8.95083C11.6146 8.641 11.8423 8.32371 12.1297 8.05494C13.0031 7.22998 14.0407 6.81563 15.25 6.8231C15.9144 6.83056 16.5713 6.87536 17.2095 7.062C18.6726 7.48381 19.5273 8.49542 19.9304 9.92511C20.2365 11.0002 20.2924 12.1014 20.2924 13.2063C20.2962 15.5393 20.285 17.8687 20.2924 20.2017C20.2924 20.4182 20.2327 20.4779 20.0162 20.4742C18.8144 20.463 17.6126 20.463 16.4145 20.4742C16.2017 20.4742 16.157 20.4107 16.157 20.2092C16.1644 17.9918 16.1644 15.7708 16.157 13.5535C16.157 12.9973 16.1196 12.4411 15.9629 11.8998C15.6755 10.9031 14.9626 10.3955 13.9213 10.4514C12.4955 10.5261 11.7565 11.2316 11.5736 12.68C11.5288 13.0271 11.5101 13.3706 11.5101 13.7214C11.5101 15.879 11.5101 18.0366 11.5176 20.1942C11.5176 20.4107 11.4653 20.4742 11.2451 20.4705C10.0358 20.4593 8.82655 20.4593 7.61726 20.4705C7.42317 20.4705 7.36719 20.4182 7.36719 20.2241C7.37092 15.9537 7.37092 11.6796 7.36719 7.40916C7.36719 7.19638 7.43437 7.14786 7.63592 7.15159C8.78549 7.15906 9.93507 7.16279 11.0809 7.15159C11.2937 7.15159 11.3459 7.21878 11.3422 7.41662C11.331 7.92803 11.3384 8.43943 11.3384 8.9471V8.95083Z" fill="#FDFDFD"/>
<path d="M4.76113 13.8334C4.76113 15.9463 4.76113 18.0591 4.76486 20.1719C4.76486 20.407 4.70888 20.478 4.46254 20.4742C3.26071 20.4593 2.06262 20.463 0.860788 20.4742C0.666704 20.4742 0.610718 20.4257 0.610718 20.2279C0.618183 15.95 0.61445 11.6721 0.610718 7.39051C0.610718 7.21507 0.651774 7.15161 0.842126 7.15161C2.05888 7.15908 3.27937 7.16281 4.49613 7.15161C4.73127 7.15161 4.76113 7.2412 4.76113 7.43904C4.75367 9.57051 4.76113 11.702 4.76113 13.8297V13.8334Z" fill="#FDFDFD"/>
<path d="M5.08946 2.91491C5.08946 4.24008 4.01453 5.32261 2.68954 5.32261C1.3832 5.32261 0.297077 4.24008 0.293345 2.93358C0.289612 1.61214 1.37574 0.525879 2.697 0.525879C4.00707 0.525879 5.08946 1.60468 5.08946 2.91118V2.91491Z" fill="#FDFDFD"/>
</svg>

<svg xmlns="http://www.w3.org/2000/svg" width="21" height="21" fill="none"><path fill="#FDFDFD" d="M11.338 8.95c.277-.309.504-.626.792-.895.873-.825 1.91-1.24 3.12-1.232.664.008 1.321.052 1.96.239 1.463.422 2.317 1.433 2.72 2.863.306 1.075.362 2.176.362 3.281.004 2.333-.007 4.663 0 6.996 0 .216-.06.276-.276.272a193 193 0 0 0-3.601 0c-.213 0-.258-.063-.258-.265.007-2.217.007-4.438 0-6.655 0-.557-.037-1.113-.194-1.654-.287-.997-1-1.505-2.042-1.449-1.425.075-2.164.78-2.347 2.229-.045.347-.064.69-.064 1.041q-.002 3.237.008 6.473c0 .217-.053.28-.273.277q-1.814-.018-3.628 0c-.194 0-.25-.053-.25-.247q.006-6.407 0-12.815c0-.213.067-.261.269-.257 1.15.007 2.3.01 3.445 0 .213 0 .265.067.261.265-.011.511-.004 1.022-.004 1.53zM4.761 13.833q-.001 3.17.004 6.339c0 .235-.056.306-.302.302-1.202-.015-2.4-.011-3.602 0-.194 0-.25-.048-.25-.246.007-4.278.003-8.556 0-12.837 0-.176.04-.24.231-.24 1.217.008 2.437.012 3.654 0 .235 0 .265.09.265.288-.007 2.132 0 4.263 0 6.39zM5.09 2.915a2.407 2.407 0 0 1-2.4 2.408 2.415 2.415 0 0 1-2.397-2.39A2.413 2.413 0 0 1 2.697.527 2.403 2.403 0 0 1 5.089 2.91z"/></svg>
